Catalina-light/actions/16/format-text-remove-formatting-symbolic.svg

<?xml version="1.0" encoding="UTF-8" standalone="no"?>
<svg
   xmlns:dc="http://purl.org/dc/elements/1.1/"
   xmlns:cc="http://creativecommons.org/ns#"
   xmlns:rdf="http://www.w3.org/1999/02/22-rdf-syntax-ns#"
   xmlns:svg="http://www.w3.org/2000/svg"
   xmlns="http://www.w3.org/2000/svg"
   xmlns:sodipodi="http://sodipodi.sourceforge.net/DTD/sodipodi-0.dtd"
   xmlns:inkscape="http://www.inkscape.org/namespaces/inkscape"
   viewBox="0 0 16 16"
   id="svg3429"
   version="1.1"
   inkscape:version="0.91 r13725"
   sodipodi:docname="format-text-remove-formatting-symbolic.svg">
  <metadata
     id="metadata3437">
    <rdf:RDF>
      <cc:Work
         rdf:about="">
        <dc:format>image/svg+xml</dc:format>
        <dc:type
           rdf:resource="http://purl.org/dc/dcmitype/StillImage" />
      </cc:Work>
    </rdf:RDF>
  </metadata>
  <sodipodi:namedview
     pagecolor="#ffffff"
     bordercolor="#666666"
     borderopacity="1"
     objecttolerance="10"
     gridtolerance="10"
     guidetolerance="10"
     inkscape:pageopacity="0"
     inkscape:pageshadow="2"
     inkscape:window-width="640"
     inkscape:window-height="480"
     id="namedview3435"
     showgrid="false"
     inkscape:zoom="41.1875"
     inkscape:cx="3.6783005"
     inkscape:cy="8"
     inkscape:current-layer="svg3429" />
  <defs
     id="defs3051">
    <style
       type="text/css"
       id="current-color-scheme">
      .ColorScheme-Text {
        color:#bebebe;
      }
      </style>
  </defs>
  <path
     style="color:#bebebe;fill:currentColor;fill-opacity:1;stroke:none"
     class="ColorScheme-Text"
     d="M 3.1946903,2 2,3.1946903 5.9872788,7.181969 C 5.3377869,7.2570791 4.7660273,7.5452646 4.3893805,7.9734513 3.9523681,8.4702641 3.7467837,9.086907 3.7522124,9.699115 c 0.0051,0.612208 0.2284715,1.234161 0.6637168,1.725664 0.4352453,0.491503 1.1133196,0.823009 1.8849558,0.823009 l 4.247788,0 0.504424,0 L 12.80531,14 14,12.80531 3.1946903,2 Z m 3.4513274,1.7522124 1.699115,1.699115 1.3539823,0 c 0.363747,0 0.849558,0.5217473 0.849558,0.8495576 l 0,0.8495575 -0.504425,0 2.20354,2.2035395 0,-3.053097 C 12.247864,4.9124191 11.126542,3.7522124 9.699115,3.7522124 l -3.0530973,0 z m -0.3451327,5.0973451 1.3539823,0 1.699115,1.6991155 -3.0530973,0 c -0.3380135,0 -0.4816227,-0.09327 -0.6106195,-0.238938 C 5.5612687,10.164069 5.4534343,9.936464 5.4513274,9.699115 5.4496274,9.461766 5.5402504,9.228851 5.6637168,9.088496 5.787183,8.94814 5.9420658,8.8495575 6.300885,8.8495575 Z"
     id="path3433"
     inkscape:connector-curvature="0" />
</svg>

<svg version="1.1" viewBox="0 0 16 16" xmlns="http://www.w3.org/2000/svg">
<defs>
<style id="current-color-scheme" type="text/css">.ColorScheme-Text {
        color:#bebebe;
      }</style>
</defs>
<path class="ColorScheme-Text" d="m3.1947 2-1.1947 1.1947 3.9873 3.9873c-0.64949 0.07511-1.2213 0.3633-1.5979 0.79148-0.43701 0.49681-0.6426 1.1135-0.63717 1.7257 0.0051 0.61221 0.22847 1.2342 0.66372 1.7257s1.1133 0.82301 1.885 0.82301h4.2478 0.50442l1.7522 1.7522 1.1947-1.1947-10.805-10.805zm3.4513 1.7522 1.6991 1.6991h1.354c0.36375 0 0.84956 0.52175 0.84956 0.84956v0.84956h-0.50442l2.2035 2.2035v-3.0531c7.6e-5 -1.3885-1.1212-2.5487-2.5487-2.5487h-3.0531zm-0.34513 5.0973h1.354l1.6991 1.6991h-3.0531c-0.33801 0-0.48162-0.09327-0.61062-0.23894-0.129-0.14567-0.23683-0.37327-0.23894-0.61062-0.0017-0.23735 0.088923-0.47026 0.21239-0.61062 0.12347-0.14036 0.27835-0.23894 0.63717-0.23894z" color="#bebebe" fill="currentColor"/>
</svg>
